polaris-icons/icons/new-icons/JobsMajor.svg

<svg width="20" height="20" viewBox="0 0 20 20" fill="none" xmlns="http://www.w3.org/2000/svg">
<path fill-rule="evenodd" clip-rule="evenodd" d="M6.5 4.75V5.5H6C4.34984 5.5 3.01085 6.83232 3.00007 8.47994C2.99972 8.49275 2.99969 8.50558 3 8.5184V14C3 15.6569 4.34315 17 6 17H14C15.6569 17 17 15.6569 17 14V8.5C17 6.84315 15.6569 5.5 14 5.5H13.5V4.75C13.5 3.7835 12.7165 3 11.75 3H8.25C7.2835 3 6.5 3.7835 6.5 4.75ZM8.25 4.5C8.11193 4.5 8 4.61193 8 4.75V5.5H12V4.75C12 4.61193 11.8881 4.5 11.75 4.5H8.25ZM14 7H6C5.26266 7 4.64957 7.53201 4.52367 8.23312C4.56789 8.27784 4.6195 8.32852 4.67837 8.38403C4.92468 8.61628 5.29542 8.93038 5.78219 9.24535C6.75421 9.87432 8.17497 10.4986 9.99354 10.5C9.99569 10.5 9.99785 10.5 10 10.5C10.0021 10.5 10.0043 10.5 10.0064 10.5C11.8248 10.4985 13.2455 9.87428 14.2174 9.24535C14.7042 8.93038 15.0749 8.61628 15.3212 8.38403C15.3803 8.32838 15.432 8.27759 15.4763 8.23279C15.3502 7.53185 14.7372 7 14 7ZM9 11.9465V12C9 12.5523 9.44772 13 10 13C10.5523 13 11 12.5523 11 12V11.9465C12.7044 11.7623 14.0632 11.1318 15.0323 10.5047C15.1996 10.3965 15.3555 10.2882 15.5 10.182V14C15.5 14.8284 14.8284 15.5 14 15.5H6C5.17157 15.5 4.5 14.8284 4.5 14V10.1823C4.64436 10.2884 4.80018 10.3966 4.9673 10.5047C5.93653 11.1319 7.29541 11.7624 9 11.9465Z" fill="#4A4A4A"/>
</svg>

<svg viewBox="0 0 20 20" xmlns="http://www.w3.org/2000/svg"><path fill-rule="evenodd" d="M6.5 4.75v.75h-.5a3 3 0 0 0-3 3.018v5.482a3 3 0 0 0 3 3h8a3 3 0 0 0 3-3v-5.5a3 3 0 0 0-3-3h-.5v-.75a1.75 1.75 0 0 0-1.75-1.75h-3.5a1.75 1.75 0 0 0-1.75 1.75Zm1.75-.25a.25.25 0 0 0-.25.25v.75h4v-.75a.25.25 0 0 0-.25-.25h-3.5Zm5.75 2.5h-8a1.5 1.5 0 0 0-1.476 1.233 7.785 7.785 0 0 0 1.259 1.012 7.707 7.707 0 0 0 4.21 1.255h.013a7.707 7.707 0 0 0 4.211-1.255 7.782 7.782 0 0 0 1.26-1.012 1.5 1.5 0 0 0-1.477-1.233Zm-5 4.947v.053a1 1 0 1 0 2 0v-.053a9.241 9.241 0 0 0 4.5-1.765v3.818a1.5 1.5 0 0 1-1.5 1.5h-8a1.5 1.5 0 0 1-1.5-1.5v-3.818a9.24 9.24 0 0 0 4.5 1.764Z" fill="#5C5F62"/></svg>
